src/maasserver/static/assets/images/icons/help.svg

<?xml version="1.0" encoding="UTF-8" standalone="no"?>
<svg width="22px" height="22px" viewBox="0 0 22 22" version="1.1" xmlns="http://www.w3.org/2000/svg" xmlns:xlink="http://www.w3.org/1999/xlink">
    <!-- Generator: Sketch 40.3 (33839) - http://www.bohemiancoding.com/sketch -->
    <title>help</title>
    <desc>Created with Sketch.</desc>
    <defs></defs>
    <g id="Page-1" stroke="none" stroke-width="1" fill="none" fill-rule="evenodd">
        <g id="help">
            <g id="Group">
                <rect id="rect1710-06" x="0" y="0" width="22" height="22"></rect>
                <path d="M11.01107,5.90213 C10.5801633,5.90213 10.1677267,5.95753333 9.77376,6.06834 C9.37979333,6.16683333 8.96736,6.33304 8.53646,6.56696 L7.90857,4.8495 C8.36409667,4.59096 8.88118,4.38782 9.45982,4.24008 C10.0507733,4.08003333 10.6540367,4.00001 11.26961,4.00001 C12.0082967,4.00001 12.6177133,4.10465667 13.09786,4.31395 C13.5780133,4.51093667 13.95967,4.76332333 14.24283,5.07111 C14.5259967,5.37889667 14.72298,5.71746333 14.83378,6.08681 C14.9445867,6.45615 14.99999,6.81318333 14.99999,7.15791 C14.99999,7.57649667 14.9199667,7.95199667 14.75992,8.28441 C14.61218,8.61681667 14.42135,8.92460333 14.18743,9.20777 C13.95351,9.49093667 13.7011267,9.76179 13.43028,10.02033 C13.1594267,10.2665567 12.90704,10.5250967 12.67312,10.79595 C12.4392,11.05449 12.2422167,11.3315 12.08217,11.62698 C11.93443,11.9224533 11.86056,12.2548633 11.86056,12.62421 L11.86056,12.84581 C11.86056,12.9196833 11.8667267,12.9935533 11.87906,13.06742 L9.95847,13.06742 C9.93387,12.9443067 9.91540333,12.8150367 9.90307,12.67961 C9.89073667,12.53187 9.88457,12.3964433 9.88457,12.27333 C9.88457,11.86705 9.95228333,11.50386 10.08771,11.18376 C10.2231367,10.8636667 10.3954967,10.5681933 10.60479,10.29734 C10.8140833,10.0264867 11.03569,9.7741 11.26961,9.54018 C11.5158367,9.30626 11.7436,9.07234 11.9529,8.83842 C12.1621933,8.60450667 12.3345533,8.36443333 12.46998,8.1182 C12.6054067,7.87197333 12.67312,7.60112 12.67312,7.30564 C12.67312,6.89936667 12.5315367,6.56695667 12.24837,6.30841 C11.9775167,6.03755667 11.5650833,5.90213 11.01107,5.90213 L11.01107,5.90213 Z" id="path5215" fill="#808080"></path>
                <path d="M12.47737,16.00925 C12.47737,16.44015 12.33579,16.7910267 12.05263,17.06188 C11.7694633,17.3327333 11.4185833,17.46816 10.99999,17.46816 C10.59371,17.46816 10.2428333,17.3327333 9.94736,17.06188 C9.66419333,16.7910267 9.52261,16.44015 9.52261,16.00925 C9.52261,15.57835 9.66419333,15.2274733 9.94736,14.95662 C10.2428333,14.6734533 10.59371,14.53187 10.99999,14.53187 C11.4185833,14.53187 11.7694633,14.6734533 12.05263,14.95662 C12.33579,15.2274733 12.47737,15.57835 12.47737,16.00925 L12.47737,16.00925 Z" id="path5210" fill="#808080"></path>
                <circle id="path4116-0" stroke="#808080" stroke-width="1.5" cx="10.99999" cy="10.99994" r="10.249998"></circle>
            </g>
        </g>
    </g>
</svg>

<svg width="22" height="22" viewBox="0 0 22 22" xmlns="http://www.w3.org/2000/svg"><title>help</title><g fill="none" fill-rule="evenodd"><path d="M0 0h22v22H0z"/><path d="M11.011 5.902c-.43 0-.843.056-1.237.166a5.314 5.314 0 0 0-1.238.499L7.91 4.849a6.271 6.271 0 0 1 1.55-.609A6.893 6.893 0 0 1 11.27 4c.74 0 1.349.105 1.829.314.48.197.862.45 1.145.757.283.308.48.646.59 1.016.112.37.167.726.167 1.07 0 .42-.08.795-.24 1.127-.148.333-.339.64-.573.924a9.395 9.395 0 0 1-.757.812c-.27.247-.523.505-.757.776-.234.258-.43.536-.59.831a2.199 2.199 0 0 0-.222.997v.222c0 .074.006.148.018.221H9.96a3.685 3.685 0 0 1-.056-.387 4.914 4.914 0 0 1-.018-.407c0-.406.067-.77.203-1.09.135-.32.307-.615.517-.886a7.9 7.9 0 0 1 .665-.757c.246-.234.474-.468.683-.702a3.91 3.91 0 0 0 .517-.72c.135-.246.203-.517.203-.812 0-.407-.141-.739-.425-.998-.27-.27-.683-.406-1.237-.406zM12.477 16.01c0 .43-.141.781-.424 1.052-.284.27-.634.406-1.053.406-.406 0-.757-.135-1.053-.406-.283-.271-.424-.622-.424-1.053 0-.43.141-.782.424-1.052A1.47 1.47 0 0 1 11 14.532c.419 0 .77.141 1.053.425.283.27.424.621.424 1.052z" fill="gray"/><circle stroke="gray" stroke-width="1.5" cx="11" cy="11" r="10.25"/></g></svg>
